X: 8485
T: Crazy Creek
R: reel
M: 4/4
K: Amajor
CB,|:A,CEA FE^DF|EFAc BAGB|ABcd cBA2|
e3=ge2=cd|e=ged =cdcA|=G=cAG ED=CD|EDE=F ED=CD|
E3=FE2D^D|EFGB d=c B2|1 A2AAA2:|2 A6=F=G||
K:C
|:AcAG FEFG|AcAG FAGF|EFGA GED^D|EGAB c_BAG|
AcAG FEFG|AcAG FDEF|G^FGA GECD|E^DEFG4:|

